img/actual-main/exp-icon.svg

<svg width="87" height="65" viewBox="0 0 87 65" fill="none" xmlns="http://www.w3.org/2000/svg">
<path d="M1 62.4651H76.0555" stroke="#007B64" stroke-width="1.6" stroke-linecap="round" stroke-linejoin="round"/>
<path d="M78.8789 62.4651H85.7056" stroke="#007B64" stroke-width="1.6" stroke-linecap="round" stroke-linejoin="round"/>
<path d="M23.2432 62.0509C23.2432 62.0509 37.1976 56.5105 47.2368 58.3929C50.1593 58.9348 53.1695 58.7613 56.0103 57.8872C58.8512 57.0131 61.4382 55.4644 63.5505 53.3733V59.0203L62.0133 61.5678L61.2039 62.4651H24.0212L23.2432 62.0509Z" fill="#F1F1F1"/>
<path d="M18.2736 60.1749C17.2232 60.2385 16.1904 59.8833 15.4013 59.1872C14.6123 58.491 14.1312 57.5105 14.0634 56.4604L11.1457 10.029C11.1126 9.50822 11.1823 8.98598 11.3511 8.49216C11.5198 7.99834 11.7842 7.54261 12.1292 7.15103C12.4742 6.75945 12.8929 6.43969 13.3615 6.21003C13.8301 5.98036 14.3394 5.8453 14.8602 5.81255L17.4516 5.64941" stroke="#007B64" stroke-width="1.6" stroke-linecap="round" stroke-linejoin="round"/>
<path d="M63.3935 51.1898V58.6251C63.3935 59.1299 63.294 59.6298 63.1006 60.0961C62.9072 60.5624 62.6238 60.9859 62.2666 61.3426C61.9093 61.6993 61.4853 61.982 61.0187 62.1746C60.5521 62.3672 60.052 62.4659 59.5472 62.4651H24.9748C23.9563 62.4651 22.9796 62.0605 22.2595 61.3404C21.5393 60.6202 21.1348 59.6435 21.1348 58.6251V4.84C21.1348 3.82157 21.5393 2.84485 22.2595 2.12471C22.9796 1.40457 23.9563 1 24.9748 1H52.1935L63.3935 12.8463" fill="white"/>
<path d="M63.3935 45.4298V58.6063C63.3935 59.1111 63.294 59.611 63.1006 60.0773C62.9072 60.5436 62.6238 60.9671 62.2666 61.3238C61.9093 61.6805 61.4853 61.9632 61.0187 62.1558C60.5521 62.3484 60.052 62.4471 59.5472 62.4463H24.9748C23.9563 62.4463 22.9796 62.0417 22.2595 61.3216C21.5393 60.6014 21.1348 59.6247 21.1348 58.6063V4.84002C21.1348 3.82158 21.5393 2.84486 22.2595 2.12472C22.9796 1.40459 23.9563 1.00001 24.9748 1.00001H51.9175C52.0045 0.999425 52.0908 1.01697 52.1707 1.05154C52.2507 1.08611 52.3225 1.13694 52.3818 1.2008L63.3935 12.8463" stroke="#007B64" stroke-width="1.632" stroke-linecap="round" stroke-linejoin="round"/>
<path d="M63.3936 13.0095V18.7381V20.7146" stroke="#007B64" stroke-width="1.6" stroke-linecap="round" stroke-linejoin="round"/>
<path d="M58.267 12.8463H55.067C54.0486 12.8463 53.0719 12.4418 52.3518 11.7216C51.6316 11.0015 51.2271 10.0248 51.2271 9.00632V5.80005" stroke="#007B64" stroke-width="1.6" stroke-linecap="round" stroke-linejoin="round"/>
<path d="M25.6396 26.4119H49.1188" stroke="#007B64" stroke-width="1.6" stroke-linecap="round" stroke-linejoin="round"/>
<path d="M25.6396 21.1851H49.1188" stroke="#007B64" stroke-width="1.6" stroke-linecap="round" stroke-linejoin="round"/>
<path d="M25.6396 31.6448H49.1188" stroke="#007B64" stroke-width="1.6" stroke-linecap="round" stroke-linejoin="round"/>
<path d="M25.6396 36.8713H49.1188" stroke="#007B64" stroke-width="1.6" stroke-linecap="round" stroke-linejoin="round"/>
<path d="M72.3664 20.3254C72.8331 20.3507 73.2765 20.537 73.6213 20.8525L74.6127 21.7686C75.5538 22.6345 75.466 24.2784 74.4244 25.3764L53.2794 48.2721L46.8354 51.1396L48.8935 44.2376L68.4825 23.0298L69.3672 22.076" fill="white"/>
<path d="M69.6703 30.2419L67.9927 28.6921L51.4735 46.5751L53.1511 48.1248L69.6703 30.2419Z" fill="#EBEBEB"/>
<path d="M67.6663 23.9333L65.4326 26.3929L69.6616 30.2392L72.2593 27.7608L67.8232 23.7639L67.6663 23.9333Z" fill="#FFC463"/>
<path d="M69.8317 30.3898L65.4458 26.3364" stroke="#FFC463" stroke-width="1.6" stroke-linecap="round" stroke-linejoin="round"/>
<path d="M67.6606 23.9333L72.0528 27.9867" stroke="#FFC463" stroke-width="1.6" stroke-linecap="round" stroke-linejoin="round"/>
<path d="M72.3664 20.3254C72.8331 20.3507 73.2765 20.537 73.6213 20.8525L74.6127 21.7686C75.5538 22.6345 75.466 24.2784 74.4244 25.3764L53.2794 48.2721L46.8354 51.1396L48.8935 44.2376L68.4825 23.0298L69.3672 22.076" stroke="#007B64" stroke-width="1.6" stroke-linecap="round" stroke-linejoin="round"/>
<path d="M48.9248 44.2188L53.3107 48.2721" stroke="#007B64" stroke-width="1.6" stroke-miterlimit="10" stroke-linecap="round"/>
<path d="M33.0622 52.9133L33.0137 52.3719C32.968 51.7005 33.0776 51.0275 33.334 50.4053C33.5905 49.7831 33.9869 49.2283 34.4924 48.7841C35.559 47.6852 36.157 46.8771 36.157 45.9397C36.157 44.8812 35.349 44.1782 33.8945 44.1539C33.0423 44.1422 32.2035 44.3659 31.4704 44.8004L30.9209 43.4913C31.9665 42.934 33.1382 42.6557 34.3227 42.6833C37.062 42.6833 38.2983 44.162 38.2983 45.7377C38.2983 47.1438 37.3933 48.1619 36.2459 49.3498C35.8068 49.7203 35.4574 50.1853 35.2237 50.7101C34.99 51.2349 34.8781 51.8058 34.8964 52.38V52.9214L33.0622 52.9133ZM32.537 55.8142C32.5385 55.6327 32.5776 55.4534 32.6517 55.2877C32.7259 55.122 32.8335 54.9733 32.9678 54.8512C33.1021 54.729 33.2602 54.6359 33.4322 54.5778C33.6042 54.5196 33.7863 54.4977 33.9672 54.5133C34.1461 54.4991 34.326 54.5222 34.4956 54.5809C34.6652 54.6397 34.8208 54.7329 34.9526 54.8547C35.0844 54.9766 35.1896 55.1243 35.2615 55.2888C35.3335 55.4532 35.3706 55.6307 35.3706 55.8102C35.3706 55.9897 35.3335 56.1672 35.2615 56.3317C35.1896 56.4961 35.0844 56.6439 34.9526 56.7657C34.8208 56.8875 34.6652 56.9807 34.4956 57.0395C34.326 57.0982 34.1461 57.1213 33.9672 57.1071C33.7867 57.1239 33.6048 57.1031 33.4328 57.0459C33.2608 56.9886 33.1026 56.8964 32.9681 56.7748C32.8337 56.6533 32.7259 56.5051 32.6517 56.3398C32.5775 56.1744 32.5384 55.9955 32.537 55.8142Z" fill="#FFC463" stroke="#FFC463" stroke-width="0.473921" stroke-linecap="round" stroke-linejoin="round"/>
</svg>

<svg width="87" height="65" fill="none" xmlns="http://www.w3.org/2000/svg"><path d="M1 62.465h75.055m2.824 0h6.827" stroke="#007B64" stroke-width="1.6" stroke-linecap="round" stroke-linejoin="round"/><path d="M23.243 62.05s13.955-5.54 23.994-3.657a18.416 18.416 0 0016.313-5.02v5.647l-1.537 2.548-.81.897H24.022l-.778-.414z" fill="#F1F1F1"/><path d="M18.274 60.175a3.978 3.978 0 01-4.21-3.715l-2.919-46.43a3.972 3.972 0 013.714-4.216l2.592-.164" stroke="#007B64" stroke-width="1.6" stroke-linecap="round" stroke-linejoin="round"/><path d="M63.394 51.19v7.435a3.84 3.84 0 01-3.847 3.84H24.975a3.84 3.84 0 01-3.84-3.84V4.84A3.84 3.84 0 0124.975 1h27.218l11.2 11.846" fill="#fff"/><path d="M63.394 45.43v13.176a3.84 3.84 0 01-3.847 3.84H24.975a3.84 3.84 0 01-3.84-3.84V4.84A3.84 3.84 0 0124.975 1h26.942a.627.627 0 01.465.2l11.012 11.646" stroke="#007B64" stroke-width="1.632" stroke-linecap="round" stroke-linejoin="round"/><path d="M63.394 13.01v7.705m-5.127-7.869h-3.2a3.84 3.84 0 01-3.84-3.84V5.8M25.64 26.412h23.479M25.64 21.185h23.479M25.64 31.645h23.479M25.64 36.871h23.479" stroke="#007B64" stroke-width="1.6" stroke-linecap="round" stroke-linejoin="round"/><path d="M72.366 20.325c.467.026.91.212 1.255.527l.992.917c.94.866.853 2.51-.189 3.607L53.28 48.272l-6.444 2.868 2.059-6.902L68.483 23.03l.884-.954" fill="#fff"/><path d="M69.67 30.242l-1.677-1.55-16.52 17.883 1.678 1.55 16.52-17.883z" fill="#EBEBEB"/><path d="M67.666 23.933l-2.233 2.46 4.229 3.846 2.597-2.478-4.436-3.997-.157.17z" fill="#FFC463"/><path d="M69.832 30.39l-4.386-4.054m2.214-2.403l4.393 4.054" stroke="#FFC463" stroke-width="1.6" stroke-linecap="round" stroke-linejoin="round"/><path d="M72.366 20.325c.467.026.91.212 1.255.527l.992.917c.94.866.853 2.51-.189 3.607L53.28 48.272l-6.444 2.868 2.059-6.902L68.483 23.03l.884-.954" stroke="#007B64" stroke-width="1.6" stroke-linecap="round" stroke-linejoin="round"/><path d="M48.925 44.219l4.386 4.053" stroke="#007B64" stroke-width="1.6" stroke-miterlimit="10" stroke-linecap="round"/><path d="M33.062 52.913l-.048-.541a4.381 4.381 0 011.478-3.588c1.067-1.099 1.665-1.907 1.665-2.844 0-1.059-.808-1.762-2.262-1.786a4.63 4.63 0 00-2.425.646l-.55-1.309a6.891 6.891 0 013.403-.808c2.739 0 3.975 1.479 3.975 3.055 0 1.406-.905 2.424-2.052 3.612a3.805 3.805 0 00-1.35 3.03v.541l-1.834-.008zm-.525 2.901a1.317 1.317 0 011.43-1.3 1.3 1.3 0 110 2.593 1.309 1.309 0 01-1.43-1.293z" fill="#FFC463" stroke="#FFC463" stroke-width=".474" stroke-linecap="round" stroke-linejoin="round"/></svg>
